assets/illustrations/default/professional-2.svg

<svg xmlns="http://www.w3.org/2000/svg" width="1080" height="1081" fill="none"><path fill="url(#a)" d="M571.127 72.413H749.41L763 86.003v335.373H631.31v-53.711h-60.183l-13.59-13.59V86.165z"/><path fill="url(#b)" d="M747.631 343.075H763v-56.138h-15.369z"/><path fill="#8C3A03" d="m780.473 334.013-17.472 18.282V217.207h20.223V327.38a9.44 9.44 0 0 1-2.751 6.633"/><path fill="url(#c)" d="m677.904 386.431-46.593 34.945v-53.712h46.593z"/><path fill="#F06305" fill-rule="evenodd" d="M611.091 218.867a2.427 2.427 0 0 1 1.248 3.197l-28.599 65.194h29.289a2.427 2.427 0 0 1 0 4.854h-33.004a2.426 2.426 0 0 1-2.222-3.402l30.091-68.595a2.427 2.427 0 0 1 3.197-1.248" clip-rule="evenodd" opacity=".45"/><path fill="#8C3A03" d="M557.537 150.877h224.391V62.221c0-5.34-4.368-9.707-9.707-9.707H567.244c-5.339 0-9.707 4.368-9.707 9.707z"/><path fill="#8C3A03" d="m738.087 219.472 45.299 31.385V62.382c0-5.34-4.368-9.707-9.707-9.707h-39.637v158.869c-.161 3.074 1.295 5.986 4.045 7.928"/><path fill="#0096FA" d="m278.95 437.715 41.74 117.615 85.421-113.085c25.723-34.136 65.521-54.359 108.07-55.491l401.703 51.932 9.06 2.912c48.697 16.016 84.776 57.432 93.836 107.908l9.87 379.54H439.114V778.589l-43.358 61.962c-48.372 68.919-154.824 52.094-179.415-28.473L116.036 483.176z"/><path fill="#FCAA73" d="m507.064 693.653-16.34 4.53 16.987 10.516z"/><path fill="url(#d)" d="m62 281.759 53.713 49.343-37.534-88.98 14.075-11.001 51.932 77.817-21.679-114.703 21.679-5.986 39.151 109.85.324-96.099 19.09-3.397 27.018 151.751 32.032-45.946 16.34 4.53-33.488 101.923 8.412 33.974-119.718 33.974-33.489-110.173L51 293.731z"/><path fill="url(#e)" d="M850.04 649.327v279.882H438.791z"/><path fill="url(#f)" d="M438.792 778.752V559.376l-51.285 291.207z"/><path fill="url(#g)" d="m320.69 555.17 45.946 130.558-18.605-166.797z"/><path fill="#1BA766" d="M717.864 896.365 541.36 856.891V599.496l180.71 40.284c4.368.97 7.604 4.853 7.604 9.545v237.657c0 6.148-5.824 10.839-11.81 9.383M503.826 676.181l37.372-20.708v-55.977l-37.372 20.546z"/><path fill="#fff" d="m711.554 904.617-170.356-38.99V628.455l-29.445-4.529 29.445-16.017 173.753 39.799c3.56.808 5.986 3.882 5.986 7.603v241.54c.162 5.177-4.53 8.898-9.383 7.766"/><path fill="#35DE90" d="m680.33 917.074-168.9-37.695c-4.368-.971-7.604-4.854-7.604-9.545V620.043l180.71 40.284c4.368.97 7.604 4.853 7.604 9.545v237.657c0 6.309-5.662 10.839-11.81 9.545"/><path fill="url(#h)" d="M560.775 724.716h-2.427l-12.619-62.124 12.943-7.28 46.593 88.332 38.019 16.179-28.15 104.025-124.41-47.887V698.184z"/><path fill="#0096FA" d="M885.631 1020.29c-.485-.32-1.132-.48-1.618-.81L580.511 880.189l73.287-157.251 242.511 110.82c10.03-3.236 20.546-5.177 31.709-5.177 55.491 0 100.462 44.975 100.462 100.466s-44.971 100.463-100.462 100.463c-14.722 0-28.797-3.23-41.416-8.89z"/><path fill="#C5D9FB" d="m691.171 409.566-56.624 63.095-41.901-75.876zM691.171 409.566l37.048 76.847 62.771-63.904z"/><path fill="#FEDBC3" d="M779.18 286.936h-37.371v-58.565h50.637v45.299c0 7.28-5.986 13.266-13.266 13.266"/><path fill="#072F73" fill-rule="evenodd" d="M652.18 203.941c-12.152 0-22.002 9.851-22.002 22.003s9.85 22.002 22.002 22.002 22.002-9.851 22.002-22.002c0-12.152-9.851-22.003-22.002-22.003m-26.856 22.003c0-14.832 12.024-26.856 26.856-26.856s26.856 12.024 26.856 26.856-12.024 26.855-26.856 26.855-26.856-12.023-26.856-26.855" clip-rule="evenodd"/><path fill="#072F73" fill-rule="evenodd" d="M609.47 213.486c-6.849 0-12.819 3.051-16.916 7.88a2.427 2.427 0 0 1-3.701-3.14c4.963-5.849 12.258-9.593 20.617-9.593 8.377 0 15.829 3.92 20.779 9.754a2.428 2.428 0 0 1-3.701 3.141c-4.11-4.844-10.248-8.042-17.078-8.042" clip-rule="evenodd"/><path fill="#072F73" fill-rule="evenodd" d="M567.084 203.941c-12.151 0-22.002 9.851-22.002 22.003s9.851 22.002 22.002 22.002c12.152 0 22.002-9.851 22.002-22.002 0-12.152-9.85-22.003-22.002-22.003m-26.855 22.003c0-14.832 12.023-26.856 26.855-26.856s26.856 12.024 26.856 26.856-12.024 26.855-26.856 26.855-26.855-12.023-26.855-26.855M674.183 225.943a2.426 2.426 0 0 1 2.426-2.426h85.097a2.427 2.427 0 1 1 0 4.853h-85.097a2.426 2.426 0 0 1-2.426-2.427" clip-rule="evenodd"/><defs><linearGradient id="a" x1="708.434" x2="610.547" y1="386.383" y2="48.196" gradientUnits="userSpaceOnUse"><stop stop-color="#FEDBC3"/><stop offset=".255" stop-color="#FED9C0"/><stop offset=".468" stop-color="#FED3B5"/><stop offset=".665" stop-color="#FDC8A4"/><stop offset=".853" stop-color="#FDB98C"/><stop offset="1" stop-color="#FCAA73"/></linearGradient><linearGradient id="b" x1="732.726" x2="784.299" y1="324.376" y2="303.052" gradientUnits="userSpaceOnUse"><stop offset=".297" stop-color="#FEDBC3"/><stop offset=".453" stop-color="#FED9BF"/><stop offset=".611" stop-color="#FED1B3"/><stop offset=".77" stop-color="#FDC59E"/><stop offset=".929" stop-color="#FCB382"/><stop offset="1" stop-color="#FCAA73"/></linearGradient><linearGradient id="c" x1="671.378" x2="616.744" y1="410.621" y2="358.193" gradientUnits="userSpaceOnUse"><stop offset=".158" stop-color="#FEDBC3"/><stop offset=".345" stop-color="#FED9BF"/><stop offset=".534" stop-color="#FED1B3"/><stop offset=".724" stop-color="#FDC59E"/><stop offset=".915" stop-color="#FCB382"/><stop offset="1" stop-color="#FCAA73"/></linearGradient><linearGradient id="d" x1="160.564" x2="175.862" y1="213.796" y2="543.175" gradientUnits="userSpaceOnUse"><stop stop-color="#FEDBC3"/><stop offset=".321" stop-color="#FED9C0"/><stop offset=".52" stop-color="#FED4B8"/><stop offset=".686" stop-color="#FDCBA9"/><stop offset=".834" stop-color="#FDBF95"/><stop offset=".968" stop-color="#FCAF7A"/><stop offset="1" stop-color="#FCAA73"/></linearGradient><linearGradient id="e" x1="593.761" x2="824.218" y1="714.34" y2="1054.94" gradientUnits="userSpaceOnUse"><stop offset=".234" stop-color="#0096FA"/><stop offset=".496" stop-color="#0272CB"/><stop offset=".945" stop-color="#072F73"/></linearGradient><linearGradient id="f" x1="371.197" x2="503.044" y1="696.939" y2="722.212" gradientUnits="userSpaceOnUse"><stop offset=".315" stop-color="#0096FA"/><stop offset=".401" stop-color="#0091F3"/><stop offset=".524" stop-color="#0182E0"/><stop offset=".669" stop-color="#036BC1"/><stop offset=".83" stop-color="#054A96"/><stop offset=".945" stop-color="#072F73"/></linearGradient><linearGradient id="g" x1="360.886" x2="301.804" y1="602.071" y2="606.312" gradientUnits="userSpaceOnUse"><stop offset=".069" stop-color="#0096FA"/><stop offset=".212" stop-color="#0093F6"/><stop offset=".364" stop-color="#0189E9"/><stop offset=".521" stop-color="#0279D3"/><stop offset=".681" stop-color="#0462B5"/><stop offset=".843" stop-color="#06458F"/><stop offset=".945" stop-color="#072F73"/></linearGradient><linearGradient id="h" x1="518.464" x2="657.98" y1="729.827" y2="859.822" gradientUnits="userSpaceOnUse"><stop stop-color="#FEDBC3"/><stop offset=".255" stop-color="#FED9C0"/><stop offset=".468" stop-color="#FED3B5"/><stop offset=".665" stop-color="#FDC8A4"/><stop offset=".853" stop-color="#FDB98C"/><stop offset="1" stop-color="#FCAA73"/></linearGradient></defs></svg>

<svg width="1080" height="1081" viewBox="0 0 1080 1081" fill="none" xmlns="http://www.w3.org/2000/svg">
<path d="M571.127 72.4131H749.41L763 86.0028V421.376H631.31V367.665H571.127C565.788 362.326 562.876 359.414 557.537 354.075V86.1645L571.127 72.4131Z" fill="url(#paint0_linear_18735_2883)"/>
<path d="M747.631 343.075H763V286.937H747.631V343.075Z" fill="url(#paint1_linear_18735_2883)"/>
<path d="M780.473 334.013L763.001 352.295V217.207H783.224V327.38C783.224 329.807 782.253 332.234 780.473 334.013Z" fill="#8C3A03"/>
<path d="M677.904 386.431L631.311 421.376V367.664H677.904V386.431Z" fill="url(#paint2_linear_18735_2883)"/>
<path opacity="0.45" fill-rule="evenodd" clip-rule="evenodd" d="M611.091 218.867C612.319 219.406 612.877 220.837 612.339 222.064L583.74 287.258H613.029C614.369 287.258 615.455 288.345 615.455 289.685C615.455 291.025 614.369 292.112 613.029 292.112H580.025C579.206 292.112 578.442 291.698 577.994 291.012C577.546 290.326 577.474 289.46 577.803 288.71L607.894 220.115C608.433 218.887 609.864 218.329 611.091 218.867Z" fill="#F06305"/>
<path d="M557.537 150.877H781.928V62.2206C781.928 56.8818 777.56 52.5137 772.221 52.5137H567.244C561.905 52.5137 557.537 56.8818 557.537 62.2206V150.877Z" fill="#8C3A03"/>
<path d="M738.087 219.472L783.386 250.857V62.3817C783.386 57.0429 779.018 52.6748 773.679 52.6748H734.042V211.544C733.881 214.618 735.337 217.53 738.087 219.472Z" fill="#8C3A03"/>
<path d="M278.95 437.715L320.69 555.33L406.111 442.245C431.834 408.109 471.632 387.886 514.181 386.754L915.884 438.686L924.944 441.598C973.641 457.614 1009.72 499.03 1018.78 549.506L1028.65 929.046H439.114V778.589L395.756 840.551C347.384 909.47 240.932 892.645 216.341 812.078L116.036 483.176L278.95 437.715Z" fill="#0096FA"/>
<path d="M507.064 693.653L490.724 698.183L507.711 708.699L507.064 693.653Z" fill="#FCAA73"/>
<path d="M62.0008 281.759L115.713 331.102L78.179 242.122L92.2543 231.121L144.186 308.938L122.507 194.235L144.186 188.249L183.337 298.099L183.661 202L202.751 198.603L229.769 350.354L261.801 304.408L278.141 308.938L244.653 410.861L253.065 444.835L133.347 478.809L99.858 368.636L51 293.731L62.0008 281.759Z" fill="url(#paint3_linear_18735_2883)"/>
<path d="M850.04 649.327V929.209H438.791L850.04 649.327Z" fill="url(#paint4_linear_18735_2883)"/>
<path d="M438.792 778.752V559.376L387.507 850.583L438.792 778.752Z" fill="url(#paint5_linear_18735_2883)"/>
<path d="M320.69 555.17L366.636 685.728L348.031 518.931L320.69 555.17Z" fill="url(#paint6_linear_18735_2883)"/>
<path d="M717.864 896.365L541.36 856.891V599.496L722.07 639.78C726.438 640.75 729.674 644.633 729.674 649.325V886.982C729.674 893.13 723.85 897.821 717.864 896.365Z" fill="#1BA766"/>
<path d="M503.826 676.181L541.198 655.473V599.496L503.826 620.042V676.181Z" fill="#1BA766"/>
<path d="M711.554 904.617L541.198 865.627V628.455L511.753 623.926L541.198 607.909L714.951 647.708C718.511 648.516 720.937 651.59 720.937 655.311V896.851C721.099 902.028 716.407 905.749 711.554 904.617Z" fill="white"/>
<path d="M680.33 917.074L511.43 879.379C507.062 878.408 503.826 874.525 503.826 869.834V620.043L684.536 660.327C688.904 661.297 692.14 665.18 692.14 669.872V907.529C692.14 913.838 686.478 918.368 680.33 917.074Z" fill="#35DE90"/>
<path d="M560.775 724.716H558.348L545.729 662.592L558.672 655.312L605.265 743.644L643.284 759.823L615.134 863.848L490.724 815.961V698.184L560.775 724.716Z" fill="url(#paint7_linear_18735_2883)"/>
<path d="M885.631 1020.29C885.146 1019.97 884.499 1019.81 884.013 1019.48L580.511 880.189L653.798 722.938L896.309 833.758C906.339 830.522 916.855 828.581 928.018 828.581C983.509 828.581 1028.48 873.556 1028.48 929.047C1028.48 984.538 983.509 1029.51 928.018 1029.51C913.296 1029.51 899.221 1026.28 886.602 1020.62L885.631 1020.29Z" fill="#0096FA"/>
<path d="M691.171 409.566L634.547 472.661L592.646 396.785L691.171 409.566Z" fill="#C5D9FB"/>
<path d="M691.171 409.566L728.219 486.413L790.99 422.509L691.171 409.566Z" fill="#C5D9FB"/>
<path d="M779.18 286.936H741.809V228.371H792.446V273.67C792.446 280.95 786.46 286.936 779.18 286.936Z" fill="#FEDBC3"/>
<path fill-rule="evenodd" clip-rule="evenodd" d="M652.18 203.941C640.028 203.941 630.178 213.792 630.178 225.944C630.178 238.095 640.028 247.946 652.18 247.946C664.331 247.946 674.182 238.095 674.182 225.944C674.182 213.792 664.331 203.941 652.18 203.941ZM625.324 225.944C625.324 211.112 637.348 199.088 652.18 199.088C667.012 199.088 679.036 211.112 679.036 225.944C679.036 240.776 667.012 252.799 652.18 252.799C637.348 252.799 625.324 240.776 625.324 225.944Z" fill="#072F73"/>
<path fill-rule="evenodd" clip-rule="evenodd" d="M609.47 213.486C602.621 213.486 596.651 216.537 592.554 221.366C591.686 222.388 590.155 222.513 589.133 221.646C588.111 220.779 587.986 219.248 588.853 218.226C593.816 212.377 601.111 208.633 609.47 208.633C617.847 208.633 625.299 212.553 630.249 218.387C631.116 219.409 630.99 220.941 629.968 221.808C628.946 222.675 627.415 222.55 626.548 221.528C622.438 216.684 616.3 213.486 609.47 213.486Z" fill="#072F73"/>
<path fill-rule="evenodd" clip-rule="evenodd" d="M567.084 203.941C554.933 203.941 545.082 213.792 545.082 225.944C545.082 238.095 554.933 247.946 567.084 247.946C579.236 247.946 589.086 238.095 589.086 225.944C589.086 213.792 579.236 203.941 567.084 203.941ZM540.229 225.944C540.229 211.112 552.252 199.088 567.084 199.088C581.916 199.088 593.94 211.112 593.94 225.944C593.94 240.776 581.916 252.799 567.084 252.799C552.252 252.799 540.229 240.776 540.229 225.944Z" fill="#072F73"/>
<path fill-rule="evenodd" clip-rule="evenodd" d="M674.183 225.943C674.183 224.603 675.269 223.517 676.609 223.517H761.706C763.046 223.517 764.133 224.603 764.133 225.943C764.133 227.284 763.046 228.37 761.706 228.37H676.609C675.269 228.37 674.183 227.284 674.183 225.943Z" fill="#072F73"/>
<defs>
<linearGradient id="paint0_linear_18735_2883" x1="708.434" y1="386.383" x2="610.547" y2="48.1962" gradientUnits="userSpaceOnUse">
<stop stop-color="#FEDBC3"/>
<stop offset="0.2545" stop-color="#FED9C0"/>
<stop offset="0.4675" stop-color="#FED3B5"/>
<stop offset="0.6655" stop-color="#FDC8A4"/>
<stop offset="0.8533" stop-color="#FDB98C"/>
<stop offset="1" stop-color="#FCAA73"/>
</linearGradient>
<linearGradient id="paint1_linear_18735_2883" x1="732.726" y1="324.376" x2="784.299" y2="303.052" gradientUnits="userSpaceOnUse">
<stop offset="0.2969" stop-color="#FEDBC3"/>
<stop offset="0.4529" stop-color="#FED9BF"/>
<stop offset="0.6109" stop-color="#FED1B3"/>
<stop offset="0.77" stop-color="#FDC59E"/>
<stop offset="0.9288" stop-color="#FCB382"/>
<stop offset="1" stop-color="#FCAA73"/>
</linearGradient>
<linearGradient id="paint2_linear_18735_2883" x1="671.378" y1="410.621" x2="616.744" y2="358.193" gradientUnits="userSpaceOnUse">
<stop offset="0.1577" stop-color="#FEDBC3"/>
<stop offset="0.3446" stop-color="#FED9BF"/>
<stop offset="0.5339" stop-color="#FED1B3"/>
<stop offset="0.7244" stop-color="#FDC59E"/>
<stop offset="0.9147" stop-color="#FCB382"/>
<stop offset="1" stop-color="#FCAA73"/>
</linearGradient>
<linearGradient id="paint3_linear_18735_2883" x1="160.564" y1="213.796" x2="175.862" y2="543.175" gradientUnits="userSpaceOnUse">
<stop stop-color="#FEDBC3"/>
<stop offset="0.3208" stop-color="#FED9C0"/>
<stop offset="0.52" stop-color="#FED4B8"/>
<stop offset="0.6861" stop-color="#FDCBA9"/>
<stop offset="0.8338" stop-color="#FDBF95"/>
<stop offset="0.9682" stop-color="#FCAF7A"/>
<stop offset="1" stop-color="#FCAA73"/>
</linearGradient>
<linearGradient id="paint4_linear_18735_2883" x1="593.761" y1="714.34" x2="824.218" y2="1054.94" gradientUnits="userSpaceOnUse">
<stop offset="0.2337" stop-color="#0096FA"/>
<stop offset="0.496" stop-color="#0272CB"/>
<stop offset="0.9449" stop-color="#072F73"/>
</linearGradient>
<linearGradient id="paint5_linear_18735_2883" x1="371.197" y1="696.939" x2="503.044" y2="722.212" gradientUnits="userSpaceOnUse">
<stop offset="0.3154" stop-color="#0096FA"/>
<stop offset="0.4009" stop-color="#0091F3"/>
<stop offset="0.5236" stop-color="#0182E0"/>
<stop offset="0.6689" stop-color="#036BC1"/>
<stop offset="0.83" stop-color="#054A96"/>
<stop offset="0.9449" stop-color="#072F73"/>
</linearGradient>
<linearGradient id="paint6_linear_18735_2883" x1="360.886" y1="602.071" x2="301.804" y2="606.312" gradientUnits="userSpaceOnUse">
<stop offset="0.069479" stop-color="#0096FA"/>
<stop offset="0.2117" stop-color="#0093F6"/>
<stop offset="0.3641" stop-color="#0189E9"/>
<stop offset="0.5211" stop-color="#0279D3"/>
<stop offset="0.6814" stop-color="#0462B5"/>
<stop offset="0.8426" stop-color="#06458F"/>
<stop offset="0.9449" stop-color="#072F73"/>
</linearGradient>
<linearGradient id="paint7_linear_18735_2883" x1="518.464" y1="729.827" x2="657.98" y2="859.822" gradientUnits="userSpaceOnUse">
<stop stop-color="#FEDBC3"/>
<stop offset="0.2545" stop-color="#FED9C0"/>
<stop offset="0.4675" stop-color="#FED3B5"/>
<stop offset="0.6655" stop-color="#FDC8A4"/>
<stop offset="0.8533" stop-color="#FDB98C"/>
<stop offset="1" stop-color="#FCAA73"/>
</linearGradient>
</defs>
</svg>
